lib/svgs/switch-workspace.svg

<?xml version="1.0" encoding="UTF-8"?>
<svg width="16px" height="16px" viewBox="0 0 16 16" version="1.1" xmlns="http://www.w3.org/2000/svg" xmlns:xlink="http://www.w3.org/1999/xlink">
    <!-- Generator: sketchtool 51.3 (57544) - http://www.bohemiancoding.com/sketch -->
    <title>app/switch-workspace</title>
    <desc>Created with sketchtool.</desc>
    <defs></defs>
    <g id="Icons" stroke="none" stroke-width="1" fill="none" fill-rule="evenodd">
        <g id="Web" transform="translate(-194.000000, -664.000000)" fill="#000000" fill-rule="nonzero">
            <g id="app/switch-workspace" transform="translate(194.000000, 664.000000)">
                <path d="M10.9656854,2.13846154 L12.1538462,2.13846154 C13.3944524,2.13846154 14.4,3.14400918 14.4,4.38461538 L14.4,5 L13.6,5 L13.6,4.38461538 C13.6,3.58583698 12.9526246,2.93846154 12.1538462,2.93846154 L10.9656854,2.93846154 L11.8213043,3.79408036 C11.977514,3.95029008 11.977514,4.20355607 11.8213043,4.35976579 C11.6650945,4.51597551 11.4118285,4.51597551 11.2556188,4.35976579 L9.71715729,2.82130425 C9.56094757,2.66509453 9.56094757,2.41182854 9.71715729,2.25561883 L11.2556188,0.717157288 C11.4118285,0.560947571 11.6650945,0.560947571 11.8213043,0.717157288 C11.977514,0.873367004 11.977514,1.126633 11.8213043,1.28284271 L10.9656854,2.13846154 Z M7.99961498,4.8 C7.57492414,4.8 7.1701027,4.88208259 6.8,5.03123896 L6.8,1.99810135 C6.8,1.55290087 6.44613589,1.2 6.00189865,1.2 L1.99810135,1.2 C1.55290087,1.2 1.2,1.55386411 1.2,1.99810135 L1.2,6.00189865 C1.2,6.44709913 1.55386411,6.8 1.99810135,6.8 L5.03138003,6.8 C4.882098,7.1703403 4.8,7.57523666 4.8,7.99961498 L1.99810135,8 C0.894580447,8 0,7.11329365 0,6.00189865 L0,1.99810135 C0,0.894580447 0.886706352,0 1.99810135,0 L6.00189865,0 C7.10541955,0 8,0.886706352 8,1.99810135 L8,4.8 Z M6,7.99961498 C6,6.89525812 6.88743329,6 7.99961498,6 L14.000385,6 C15.1047419,6 16,6.88743329 16,7.99961498 L16,14.000385 C16,15.1047419 15.1125667,16 14.000385,16 L7.99961498,16 C6.89525812,16 6,15.1125667 6,14.000385 L6,7.99961498 Z M7.2,7.99961498 L7.2,14.000385 C7.2,14.4463944 7.55456402,14.8 7.99961498,14.8 L14.000385,14.8 C14.4463944,14.8 14.8,14.445436 14.8,14.000385 L14.8,7.99961498 C14.8,7.55360564 14.445436,7.2 14.000385,7.2 L7.99961498,7.2 C7.55360564,7.2 7.2,7.55456402 7.2,7.99961498 Z" id="Combined-Shape"></path>
            </g>
        </g>
    </g>
</svg>

<svg xmlns="http://www.w3.org/2000/svg" viewBox="0 0 16 16">
    <path d="M10.966 2.138h1.188A2.246 2.246 0 0 1 14.4 4.385V5h-.8v-.615c0-.8-.647-1.447-1.446-1.447h-1.188l.855.856a.4.4 0 0 1-.565.566L9.717 2.82a.4.4 0 0 1 0-.565L11.256.717a.4.4 0 0 1 .565.566l-.855.855zM8 4.8c-.425 0-.83.082-1.2.231V1.998a.793.793 0 0 0-.798-.798H1.998a.793.793 0 0 0-.798.798v4.004c0 .445.354.798.798.798h3.033c-.149.37-.231.775-.231 1.2H1.998A1.993 1.993 0 0 1 0 6.002V1.998C0 .895.887 0 1.998 0h4.004C7.105 0 8 .887 8 1.998V4.8zM6 8c0-1.105.887-2 2-2h6c1.105 0 2 .887 2 2v6c0 1.105-.887 2-2 2H8c-1.105 0-2-.887-2-2V8zm1.2 0v6c0 .446.355.8.8.8h6c.446 0 .8-.355.8-.8V8c0-.446-.355-.8-.8-.8H8c-.446 0-.8.355-.8.8z"/>
</svg>
